packages/icons/src/lock-open-1.svg

<svg width="15" height="15" viewBox="0 0 15 15" fill="none" xmlns="http://www.w3.org/2000/svg">
  <path
    fill-rule="evenodd"
    clip-rule="evenodd"
    d="M7.4986 0C6.3257 0 5.36107 0.38943 4.73753 1.19361C4.23745 1.83856 4 2.68242 4 3.63325H5C5 2.84313 5.19691 2.23312 5.5278 1.80636C5.91615 1.30552 6.55152 1 7.4986 1C8.35683 1 8.96336 1.26502 9.35846 1.68623C9.75793 2.11211 10 2.76044 10 3.63601V6H3C2.44772 6 2 6.44772 2 7V13C2 13.5523 2.44772 14 3 14H12C12.5523 14 13 13.5523 13 13V7C13 6.44771 12.5523 6 12 6H11V3.63601C11 2.58135 10.7065 1.66167 10.0878 1.0021C9.46477 0.337871 8.57061 0 7.4986 0ZM3 7H12V13H3V7Z"
    fill="currentColor"
  />
</svg>

<svg xmlns="http://www.w3.org/2000/svg" width="15" height="15" fill="none"><path fill="currentColor" fill-rule="evenodd" d="M7.499 0C6.326 0 5.36.39 4.738 1.194 4.238 1.839 4 2.682 4 3.634h1c0-.79.197-1.4.528-1.828.388-.5 1.024-.806 1.97-.806.859 0 1.465.265 1.86.686.4.426.642 1.074.642 1.95V6H3a1 1 0 0 0-1 1v6a1 1 0 0 0 1 1h9a1 1 0 0 0 1-1V7a1 1 0 0 0-1-1h-1V3.636c0-1.055-.293-1.974-.912-2.634C9.465.338 8.57 0 7.498 0M3 7h9v6H3z" clip-rule="evenodd"/></svg>
